X: 10001
T: Devils Of Dublin
R: reel
M: 4/4
K: Dmajor
|:dB ~B2 BAFB|AFBF AF ~F2|Ad ~d2 Adfd|efdf eBBc|
dBcA BAFB|AFBF AF ~F2|ABde fece|dBAG FD ~D2:|
|:faag ~f3 e|dfed BA ~F2|Ad ~d2 Adfd|efdf eB ~B2|
[1faag ~f3 e|dfed BAFB|ABde fece|dBAG FD ~D2:|
[2bafb afef|defd BAFB|ABde fece|dBAG FD ~D2||

